X: 74
T:The Devil Among the Taylors
% Nottingham Music Database
S:Trad, arr Phil Rowe
M:6/8
K:A
CB,|"A"A,CA, CA,C|ECE AEA|"D"FAF DFD|"A"EAE CEC|
"Bm"DFD B,DB,|"A"CEC A,CA,|"Bm"B,DB, "E7"G,B,G,|"A"A,2A, A,::
CD|"A"EFE EFE|"E7"DED DED|"A"CDC CDC|"E7"B,CB, B,CD|
"A"EFE EFE|"E7"DED DED|"A"CDC CDC|"E"B,3 -"E7"B,2E|
"A"A,CA, CA,C|ECE AEA|"D"FAF DFD|"A"EAE CEC|
"Bm"DFD B,DB,|"A"CEC A,CA,|"Bm"B,DB, "E7"G,B,G,|"A"A,3 A,:|


